packages/credential/logos/stormtrade-white.svg

<svg width="24" height="24" viewBox="0 0 24 24" fill="none" xmlns="http://www.w3.org/2000/svg">
    <path
        d="M14.741 9.81921C14.7202 9.83622 14.6986 9.85323 14.6775 9.86989C13.5581 10.6999 12.3888 11.4595 11.25 12.2624C9.27879 13.669 7.38532 15.1974 5.6652 16.9037C5.66274 16.9057 5.66067 16.9081 5.65825 16.9103C4.46077 18.064 3.32615 19.2826 2.26172 20.56C4.82301 16.3181 8.52411 12.7702 12.8785 10.3908C11.4369 10.1439 10.3745 10.3908 7.17556 11.0424C9.71254 9.13016 10.2008 8.54705 11.0722 6.61401C11.5546 6.67792 12.0359 6.74948 12.5159 6.82935C11.8456 8.15356 10.7221 9.11245 9.48265 9.89767L8.96239 10.2363C9.56357 10.0102 10.2189 9.76778 10.8444 9.63029C12.1245 9.33438 13.5144 9.30484 14.741 9.81921Z"
        fill="url(#paint0_linear_19969_1037)" />
    <path
        d="M22.3983 7.19411C20.5601 7.64628 18.9615 8.92293 18.097 10.6007C17.449 11.8934 16.3946 12.9634 15.0947 13.609C14.5046 13.9021 13.8698 14.025 13.2495 14.2331C14.9342 13.3978 16.281 12.0534 16.8263 10.2003C16.8576 10.0989 16.9187 9.89395 16.9475 9.79188C17.6074 7.69041 19.9398 6.49051 22.026 7.06216C22.151 7.09965 22.2753 7.14374 22.3983 7.19411Z"
        fill="url(#paint1_linear_19969_1037)" />
    <path
        d="M22.4121 7.18981C20.1494 6.18094 17.3586 7.56075 16.7546 9.95844C16.6977 10.1464 16.6335 10.3808 16.5601 10.5617C16.5188 10.678 16.4525 10.8434 16.3994 10.9524L16.3118 11.1448L16.2125 11.3313C15.4811 12.717 14.2048 13.7422 12.8084 14.4139L12.4204 14.5931C9.48057 15.7944 6.89044 17.8115 5.00361 20.3585C5.79897 18.9293 6.79844 17.6141 7.95944 16.4608C8.74365 15.6817 9.60156 14.9765 10.52 14.3597C9.03952 14.8133 7.63782 15.4513 6.35598 16.2584C7.91149 14.8407 9.57956 13.546 11.3007 12.3364C12.4475 11.5425 13.6294 10.7965 14.7508 9.96574C14.8199 9.9133 14.8963 9.84802 14.9605 9.78236L14.8775 9.74556C13.6061 9.17669 12.1509 9.19441 10.8135 9.49933C10.537 9.56183 10.2634 9.63651 9.99283 9.72161C10.1578 9.60733 10.3207 9.48961 10.4804 9.36807C11.3879 8.69362 12.1627 7.82849 12.6642 6.81025L12.7028 6.73382C11.7158 6.57061 10.7239 6.4362 9.72821 6.34002C8.04973 6.17607 6.32262 6.10904 4.63442 6.13334C3.42863 6.15664 2.19713 6.22055 1 6.34103C5.90764 4.70251 11.0979 3.9152 16.2716 4.00723C16.1847 4.78829 15.8673 5.53915 15.3686 6.14794C17.6802 5.11995 20.5037 5.53497 22.4121 7.18981Z"
        fill="url(#paint2_linear_19969_1037)" />
    <path
        d="M14.9605 9.78239C14.8963 9.84802 14.8199 9.91334 14.7508 9.96577C13.6294 10.7965 12.4475 11.5425 11.3007 12.3364C9.57956 13.546 7.91149 14.8407 6.35598 16.2584C6.12258 16.4706 5.89199 16.6855 5.66417 16.9036C7.38433 15.1974 9.27776 13.6689 11.249 12.2624C12.3878 11.4595 13.5571 10.6999 14.6764 9.86991C14.6976 9.85325 14.7192 9.83624 14.74 9.81919C13.5134 9.30486 12.1235 9.3344 10.8434 9.63027C10.2179 9.7678 9.56255 10.0102 8.96137 10.2363L9.48162 9.89769C10.7211 9.11247 11.8446 8.15358 12.5149 6.82937C12.0349 6.74946 11.5536 6.67794 11.0712 6.61403C10.6204 6.55395 10.1689 6.5001 9.71674 6.45254C7.80314 6.2459 5.83331 6.17228 3.90722 6.20248C2.93721 6.21914 1.9679 6.26744 1 6.34107C2.19713 6.22054 3.42863 6.15663 4.63442 6.13338C6.32262 6.10907 8.04973 6.1761 9.72821 6.34001C10.7239 6.43623 11.7158 6.57061 12.7028 6.73385L12.6642 6.81025C12.1627 7.82852 11.3879 8.69362 10.4804 9.36807C10.3207 9.48961 10.1578 9.60736 9.99283 9.7216C10.2634 9.63651 10.537 9.56187 10.8135 9.49936C12.1509 9.1944 13.6061 9.17673 14.8775 9.74556L14.9605 9.78239Z"
        fill="white" />
    <path
        d="M22.4118 7.18993C22.4073 7.18817 22.4024 7.18645 22.3979 7.1847C22.2747 7.13713 22.1503 7.09648 22.0249 7.0621C19.9388 6.49046 17.6063 7.69036 16.9464 9.79183C16.9177 9.89394 16.8565 10.0988 16.8253 10.2003C16.28 12.0534 14.9332 13.3978 13.2485 14.233C13.1071 14.3032 12.963 14.3699 12.8168 14.4331L12.4202 14.5932L12.8081 14.414C14.2046 13.7423 15.4809 12.7171 16.2123 11.3314L16.3116 11.1449L16.3991 10.9525C16.4523 10.8434 16.5186 10.6781 16.5599 10.5618C16.6332 10.3808 16.6974 10.1464 16.7544 9.95852C17.3584 7.56082 20.1492 6.18102 22.4118 7.18993Z"
        fill="white" />
    <defs>
        <linearGradient id="paint0_linear_19969_1037" x1="19.9306" y1="-18.9856" x2="33.586"
            y2="5.48017" gradientUnits="userSpaceOnUse">
            <stop offset="0.1875" stop-color="#999999" />
            <stop offset="0.567256" stop-color="#EEEEEE" />
            <stop offset="0.863872" stop-color="white" />
        </linearGradient>
        <linearGradient id="paint1_linear_19969_1037" x1="26.2028" y1="-6.50436" x2="31.9969"
            y2="8.00879" gradientUnits="userSpaceOnUse">
            <stop offset="0.1875" stop-color="#999999" />
            <stop offset="0.567256" stop-color="#EEEEEE" />
            <stop offset="0.863872" stop-color="white" />
        </linearGradient>
        <linearGradient id="paint2_linear_19969_1037" x1="15.4197" y1="6.64736" x2="0.999966"
            y2="33.1695" gradientUnits="userSpaceOnUse">
            <stop stop-color="white" />
            <stop offset="0.440758" stop-color="#EEEEEE" />
            <stop offset="1" stop-color="#CCCCCC" />
        </linearGradient>
    </defs>
</svg>

<svg width="24" height="24" fill="none" xmlns="http://www.w3.org/2000/svg"><path d="m14.741 9.82-.063.05c-1.12.83-2.29 1.59-3.428 2.392-1.971 1.407-3.865 2.935-5.585 4.642l-.007.006a45.642 45.642 0 0 0-3.396 3.65 28.35 28.35 0 0 1 10.617-10.17c-1.442-.246-2.505 0-5.703.652C9.713 9.13 10.2 8.547 11.072 6.614c.483.064.964.135 1.444.215-.67 1.325-1.794 2.283-3.033 3.069l-.52.338c.6-.226 1.256-.468 1.881-.606 1.28-.296 2.67-.325 3.897.19z" fill="url(#a)"/><path d="M22.398 7.194a6.705 6.705 0 0 0-4.301 3.407 6.727 6.727 0 0 1-3.002 3.008c-.59.293-1.225.416-1.846.624 1.685-.835 3.032-2.18 3.577-4.033.032-.101.093-.306.122-.408.66-2.102 2.992-3.301 5.078-2.73.125.038.25.082.372.132z" fill="url(#b)"/><path d="M22.412 7.19c-2.263-1.01-5.053.37-5.657 2.768-.057.188-.121.423-.195.604a4.348 4.348 0 0 1-.16.39l-.088.193-.1.186c-.73 1.386-2.007 2.411-3.404 3.083l-.388.18a17.536 17.536 0 0 0-7.416 5.764 17.5 17.5 0 0 1 5.516-5.998 17.354 17.354 0 0 0-4.164 1.898c1.555-1.417 3.224-2.712 4.945-3.922 1.146-.793 2.328-1.54 3.45-2.37.069-.053.145-.118.21-.184l-.084-.036c-1.27-.57-2.726-.552-4.064-.247-.276.063-.55.138-.82.223.165-.115.328-.232.487-.354.908-.674 1.683-1.54 2.184-2.558l.039-.076a44.414 44.414 0 0 0-8.069-.6A45.317 45.317 0 0 0 1 6.34a45.766 45.766 0 0 1 15.272-2.334 4.115 4.115 0 0 1-.903 2.14c2.311-1.027 5.135-.612 7.043 1.043z" fill="url(#c)"/><path d="M14.96 9.782c-.064.066-.14.131-.21.184-1.12.83-2.303 1.577-3.45 2.37-1.72 1.21-3.389 2.505-4.944 3.922-.233.213-.464.428-.692.646 1.72-1.707 3.614-3.235 5.585-4.642 1.139-.803 2.308-1.562 3.427-2.392a3.98 3.98 0 0 0 .064-.05c-1.227-.515-2.617-.486-3.897-.19-.625.138-1.28.38-1.882.606l.52-.338c1.24-.786 2.364-1.744 3.034-3.069a49.253 49.253 0 0 0-2.798-.377 47.57 47.57 0 0 0-5.81-.25c-.97.017-1.94.065-2.907.14a45.271 45.271 0 0 1 3.634-.209 44.42 44.42 0 0 1 8.068.6l-.038.077c-.501 1.019-1.276 1.884-2.184 2.558-.16.122-.322.24-.487.354.27-.085.544-.16.82-.223 1.338-.305 2.793-.322 4.064.247l.083.036zM22.412 7.19l-.014-.005a3.89 3.89 0 0 0-.373-.123c-2.086-.572-4.419.628-5.079 2.73-.028.102-.09.307-.12.408-.546 1.853-1.893 3.198-3.578 4.033-.14.07-.285.137-.431.2l-.397.16.388-.179c1.397-.672 2.673-1.697 3.404-3.083l.1-.186.087-.192c.053-.11.12-.275.16-.391.074-.181.138-.416.195-.603.604-2.398 3.395-3.778 5.658-2.77z" fill="#fff"/><defs><linearGradient id="a" x1="19.931" y1="-18.986" x2="33.586" y2="5.48" gradientUnits="userSpaceOnUse"><stop offset=".188" stop-color="#999"/><stop offset=".567" stop-color="#EEE"/><stop offset=".864" stop-color="#fff"/></linearGradient><linearGradient id="b" x1="26.203" y1="-6.504" x2="31.997" y2="8.009" gradientUnits="userSpaceOnUse"><stop offset=".188" stop-color="#999"/><stop offset=".567" stop-color="#EEE"/><stop offset=".864" stop-color="#fff"/></linearGradient><linearGradient id="c" x1="15.42" y1="6.647" x2="1" y2="33.169" gradientUnits="userSpaceOnUse"><stop stop-color="#fff"/><stop offset=".441" stop-color="#EEE"/><stop offset="1" stop-color="#CCC"/></linearGradient></defs></svg>
